X: 1
T: Sob\'otki Wreath Ritual
O: Czech
Z: 2010 John Chambers <jc:trillian.mit.edu>
S: Susan Worland, 2010-6-23 workshop at Peacuddy's Cafe, Melrose MA USA
N: Used in Saint John's Day celebrations.
M: 3/4
L: 1/8
K: Dm
"violin solo"\
|: d>f aa aa | aa aa aa | aa b3 a | gf e4 \
| e>f gg gg | gg gg gg | gg a3 g |1fg a4 :|2 fe d4 ||
"singers"\
[| "Dm"DF "C"E2 EC | "Dm"D6 | "Dm"DF "C"E2 EC | "Dm"D6 \
|: "Gm"GB A2 G2 | "Gm"DC D4 | "Gm"DB A2 G2 | DC D4 |
| "F"FA G2 F2 | DC A,2 C2 | "F"FA G2 F2 | DC A,2 C2 \
| "Bb"DF "C"E2 EC  | "Dm"D6 | "Bb"DF "C"E2 EC  | "Dm"D6 "x3 verses"y:|
"violin"\
[| df e2 ec | d6 | df e2 ec | d6 \
| DF E2 EC | D6 | DF E2 EC | HD6 |]
